packages/assets/static/images/icons/farm.svg

<svg width="24" height="24" viewBox="0 0 24 24" xmlns="http://www.w3.org/2000/svg" fill="currentColor" aria-hidden="true"> <path d="M16.6096 19.7789C16.719 19.8784 16.8077 19.9985 16.8707 20.1323C16.9337 20.2662 16.9697 20.4111 16.9766 20.5588C16.9836 20.7065 16.9614 20.8542 16.9113 20.9933C16.8612 21.1325 16.7842 21.2604 16.6846 21.3698C16.5851 21.4792 16.465 21.5679 16.3312 21.6309C16.1973 21.6938 16.0524 21.7298 15.9047 21.7368C15.757 21.7438 15.6093 21.7216 15.4701 21.6715C15.331 21.6214 15.2031 21.5443 15.0937 21.4448C11.5785 18.2516 6.99894 16.4839 2.24994 16.4873C1.95157 16.4873 1.66542 16.3688 1.45444 16.1578C1.24347 15.9468 1.12494 15.6607 1.12494 15.3623C1.12494 15.0639 1.24347 14.7778 1.45444 14.5668C1.66542 14.3558 1.95157 14.2373 2.24994 14.2373C7.55949 14.2323 12.6799 16.2083 16.6096 19.7789ZM9.60275 19.5914C7.29734 18.5292 4.78827 17.9818 2.24994 17.9873C1.95157 17.9873 1.66542 18.1058 1.45444 18.3168C1.24347 18.5278 1.12494 18.8139 1.12494 19.1123C1.12494 19.4107 1.24347 19.6968 1.45444 19.9078C1.66542 20.1188 1.95157 20.2373 2.24994 20.2373C4.46382 20.2317 6.65235 20.7084 8.66338 21.6342C8.79819 21.6999 8.94479 21.738 9.09454 21.7463C9.2443 21.7545 9.39419 21.7327 9.5354 21.6822C9.67662 21.6317 9.8063 21.5534 9.91683 21.452C10.0274 21.3506 10.1165 21.2282 10.179 21.0918C10.2415 20.9555 10.2761 20.808 10.2808 20.6581C10.2855 20.5082 10.2602 20.3589 10.2063 20.2189C10.1525 20.0789 10.0711 19.9511 9.96717 19.8431C9.86319 19.735 9.73866 19.6488 9.60088 19.5895L9.60275 19.5914ZM22.8749 15.3623C22.8749 15.6607 22.7564 15.9468 22.5454 16.1578C22.3345 16.3688 22.0483 16.4873 21.7499 16.4873C20.765 16.4869 19.7815 16.5621 18.8081 16.7123C19.9178 17.6865 20.9401 18.7559 21.8634 19.9082C21.9612 20.0228 22.0351 20.1559 22.0805 20.2996C22.1259 20.4433 22.142 20.5946 22.1278 20.7447C22.1137 20.8947 22.0695 21.0403 21.9979 21.173C21.9264 21.3056 21.8289 21.4225 21.7113 21.5167C21.5937 21.6109 21.4584 21.6806 21.3134 21.7215C21.1683 21.7624 21.0165 21.7738 20.867 21.7549C20.7175 21.7361 20.5733 21.6874 20.443 21.6117C20.3127 21.536 20.1989 21.435 20.1084 21.3145C17.9695 18.6325 15.2526 16.4682 12.1603 14.983C9.06809 13.4978 5.68035 12.7302 2.24994 12.7373C1.95157 12.7373 1.66542 12.6188 1.45444 12.4078C1.24347 12.1968 1.12494 11.9107 1.12494 11.6123C1.12494 11.3139 1.24347 11.0278 1.45444 10.8168C1.66542 10.6058 1.95157 10.4873 2.24994 10.4873C3.63183 10.4874 5.01141 10.6003 6.37494 10.8248V7.8623C6.37494 7.68765 6.4156 7.5154 6.49371 7.35919C6.57182 7.20298 6.68522 7.0671 6.82494 6.96231L12.8249 2.4623C13.0197 2.31625 13.2565 2.2373 13.4999 2.2373C13.7434 2.2373 13.9802 2.31625 14.1749 2.4623L20.1749 6.96231C20.3147 7.0671 20.4281 7.20298 20.5062 7.35919C20.5843 7.5154 20.6249 7.68765 20.6249 7.8623V10.5136C20.9999 10.4976 21.3749 10.4873 21.7499 10.4873C22.0483 10.4873 22.3345 10.6058 22.5454 10.8168C22.7564 11.0278 22.8749 11.3139 22.8749 11.6123C22.8749 11.9107 22.7564 12.1968 22.5454 12.4078C22.3345 12.6188 22.0483 12.7373 21.7499 12.7373C19.3822 12.7332 17.0282 13.0986 14.7731 13.8201C15.3531 14.1545 15.9203 14.5126 16.4746 14.8945C18.199 14.4573 19.971 14.2366 21.7499 14.2373C22.0483 14.2373 22.3345 14.3558 22.5454 14.5668C22.7564 14.7778 22.8749 15.0639 22.8749 15.3623ZM14.6249 10.4873H12.3749V12.2967C13.1143 11.9986 13.8643 11.7364 14.6249 11.5101V10.4873ZM8.62494 11.302C9.13025 11.4332 9.62994 11.5832 10.1249 11.7445V9.3623C10.1249 9.06394 10.2435 8.77779 10.4544 8.56681C10.6654 8.35583 10.9516 8.2373 11.2499 8.2373H15.7499C16.0483 8.2373 16.3345 8.35583 16.5454 8.56681C16.7564 8.77779 16.8749 9.06394 16.8749 9.3623V10.9561C17.3749 10.8586 17.8749 10.7757 18.3749 10.7076V8.4248L13.4999 4.76855L8.62494 8.4248V11.302Z"/> </svg>

<svg viewBox="0 0 24 24" xmlns="http://www.w3.org/2000/svg" aria-hidden="true" fill="currentColor"><path d="M16.61 19.779a1.126 1.126 0 1 1-1.516 1.666A19.08 19.08 0 0 0 2.25 16.487a1.125 1.125 0 1 1 0-2.25 21.32 21.32 0 0 1 14.36 5.542m-7.007-.188a17.5 17.5 0 0 0-7.353-1.604 1.125 1.125 0 1 0 0 2.25 15.24 15.24 0 0 1 6.413 1.397 1.126 1.126 0 0 0 1.543-1.415 1.12 1.12 0 0 0-.605-.63zm13.272-4.229a1.125 1.125 0 0 1-1.125 1.125q-1.48 0-2.942.225a25.3 25.3 0 0 1 3.055 3.196 1.125 1.125 0 1 1-1.755 1.406A22.78 22.78 0 0 0 2.25 12.737a1.125 1.125 0 1 1 0-2.25c1.382 0 2.761.113 4.125.338V7.862a1.13 1.13 0 0 1 .45-.9l6-4.5a1.125 1.125 0 0 1 1.35 0l6 4.5a1.12 1.12 0 0 1 .45.9v2.652q.563-.026 1.125-.027a1.125 1.125 0 1 1 0 2.25 22.8 22.8 0 0 0-6.977 1.083q.87.502 1.702 1.075a21.4 21.4 0 0 1 5.275-.658 1.125 1.125 0 0 1 1.125 1.125m-8.25-4.875h-2.25v1.81q1.11-.447 2.25-.787zm-6 .815q.758.198 1.5.443V9.362a1.125 1.125 0 0 1 1.125-1.125h4.5a1.125 1.125 0 0 1 1.125 1.125v1.594q.75-.146 1.5-.248V8.425L13.5 4.769 8.625 8.425z"/></svg>
